X: 32186
T: Pethau Da Bach Ar Dan
R: jig
M: 6/8
K: Aminor
A,|A,2 A, C2 E|D2 C DCA,|A,2 A A2 B|c2 B A G2-|GA c2 dc|B3 A2 B|
c2 d eee|d c2 B A2|A3 z2 A|A2 A c2 e|d2 c dcA|A2 G A2 B|c2 c d3|
e2 B A G2|E2 G A2 A|c2 B A G2|A3 z2 A,||A,2 A, C2 E|D2 C DCA,|
A,2 A A2 B|c2 B A G2-|GA c2 dc|B3 A2 B|c2 d eee|d c2 B A2|A3 z2||

